app/assets/icons/polaris/ListMajor.svg

<svg viewBox="0 0 20 20" xmlns="http://www.w3.org/2000/svg"><path fill-rule="evenodd" d="M1 2.5a1.5 1.5 0 0 1 1.5-1.5h15a1.5 1.5 0 0 1 1.5 1.5v15a1.5 1.5 0 0 1-1.5 1.5h-15a1.5 1.5 0 0 1-1.5-1.5v-15zm7 2.5h8v2h-8v-2zm8 4h-8v2h8v-2zm-8 4h8v2h-8v-2zm-3-6a1 1 0 1 0 0-2 1 1 0 0 0 0 2zm1 3a1 1 0 1 1-2 0 1 1 0 0 1 2 0zm-1 5a1 1 0 1 0 0-2 1 1 0 0 0 0 2z"/></svg>

<svg viewBox="0 0 20 20" xmlns="http://www.w3.org/2000/svg"><path fill-rule="evenodd" d="M1 2.5A1.5 1.5 0 0 1 2.5 1h15A1.5 1.5 0 0 1 19 2.5v15a1.5 1.5 0 0 1-1.5 1.5h-15A1.5 1.5 0 0 1 1 17.5v-15zM8 5h8v2H8V5zm8 4H8v2h8V9zm-8 4h8v2H8v-2zM5 7a1 1 0 1 0 0-2 1 1 0 0 0 0 2zm1 3a1 1 0 1 1-2 0 1 1 0 0 1 2 0zm-1 5a1 1 0 1 0 0-2 1 1 0 0 0 0 2z"/></svg>
